2/svg/1f3e3.svg

<?xml version="1.0" encoding="UTF-8" standalone="no"?><svg xmlns:dc="http://purl.org/dc/elements/1.1/" xmlns:cc="http://creativecommons.org/ns#" xmlns:rdf="http://www.w3.org/1999/02/22-rdf-syntax-ns#" xmlns:svg="http://www.w3.org/2000/svg" xmlns="http://www.w3.org/2000/svg" viewBox="0 0 45 45" style="enable-background:new 0 0 45 45;" xml:space="preserve" version="1.1" id="svg2"><metadata id="metadata8"><rdf:RDF><cc:Work rdf:about=""><dc:format>image/svg+xml</dc:format><dc:type rdf:resource="http://purl.org/dc/dcmitype/StillImage"/></cc:Work></rdf:RDF></metadata><defs id="defs6"><clipPath id="clipPath16" clipPathUnits="userSpaceOnUse"><path id="path18" d="M 0,36 36,36 36,0 0,0 0,36 Z"/></clipPath></defs><g transform="matrix(1.25,0,0,-1.25,0,45)" id="g10"><g id="g12"><g clip-path="url(#clipPath16)" id="g14"><g transform="translate(0,18)" id="g20"><path id="path22" style="fill:#aab8c2;fill-opacity:1;fill-rule:nonzero;stroke:none" d="m 0,0 0,-16 c 0,-1.105 0.896,-2 2,-2 l 32,0 c 1.105,0 2,0.895 2,2 L 36,0 0,0 Z"/></g><g transform="translate(0,18)" id="g24"><path id="path26" style="fill:#66757f;fill-opacity:1;fill-rule:nonzero;stroke:none" d="M 0,0 18,6.353 36,0 0,0 Z"/></g><path id="path28" style="fill:#55acee;fill-opacity:1;fill-rule:nonzero;stroke:none" d="m 34,12 -32,0 0,4 32,0 0,-4 z"/><path id="path30" style="fill:#55acee;fill-opacity:1;fill-rule:nonzero;stroke:none" d="M 34,6 2,6 2,10 34,10 34,6 Z"/><path id="path32" style="fill:#aab8c2;fill-opacity:1;fill-rule:nonzero;stroke:none" d="M 30,1 6,1 6,17 30,17 30,1 Z"/><path id="path34" style="fill:#ccd6dd;fill-opacity:1;fill-rule:nonzero;stroke:none" d="M 28,0 8,0 8,31 28,31 28,0 Z"/><path id="path36" style="fill:#55acee;fill-opacity:1;fill-rule:nonzero;stroke:none" d="m 26,12 -16,0 0,4 16,0 0,-4 z"/><path id="path38" style="fill:#55acee;fill-opacity:1;fill-rule:nonzero;stroke:none" d="m 26,6 -16,0 0,4 16,0 0,-4 z"/><path id="path40" style="fill:#ccd6dd;fill-opacity:1;fill-rule:nonzero;stroke:none" d="m 16,5 -2,0 0,18 2,0 0,-18 z"/><path id="path42" style="fill:#ccd6dd;fill-opacity:1;fill-rule:nonzero;stroke:none" d="m 22,5 -2,0 0,18 2,0 0,-18 z"/><path id="path44" style="fill:#3b88c3;fill-opacity:1;fill-rule:nonzero;stroke:none" d="m 20,0 -4,0 0,4 4,0 0,-4 z"/><path id="path46" style="fill:#dd2e44;fill-opacity:1;fill-rule:nonzero;stroke:none" d="m 23,27 -10,0 0,2 10,0 0,-2 z"/><g transform="translate(13,25)" id="g48"><path id="path50" style="fill:#dd2e44;fill-opacity:1;fill-rule:nonzero;stroke:none" d="m 0,0 0,-2 4,0 0,-4 2,0 0,4 4,0 0,2 -10,0 z"/></g><g transform="translate(8,31)" id="g52"><path id="path54" style="fill:#66757f;fill-opacity:1;fill-rule:nonzero;stroke:none" d="M 0,0 10,5 20,0 0,0 Z"/></g></g></g></g></svg>

<svg xmlns="http://www.w3.org/2000/svg" viewBox="0 0 45 45" enable-background="new 0 0 45 45"><defs><clipPath id="a"><path d="M0 36h36V0H0v36z"/></clipPath></defs><g><g><g clip-path="url(#a)" transform="matrix(1.25 0 0 -1.25 0 45)"><g><path fill="#aab8c2" d="M0 18V2C0 .9.9 0 2 0h32c1.1 0 2 .9 2 2v16H0z"/></g><g><path fill="#66757f" d="M0 18l18 6.35L36 18H0z"/></g><path fill="#55acee" d="M34 12H2v4h32v-4z"/><path fill="#55acee" d="M34 6H2v4h32V6z"/><path fill="#aab8c2" d="M30 1H6v16h24V1z"/><path fill="#ccd6dd" d="M28 0H8v31h20V0z"/><path fill="#55acee" d="M26 12H10v4h16v-4z"/><path fill="#55acee" d="M26 6H10v4h16V6z"/><path fill="#ccd6dd" d="M16 5h-2v18h2V5z"/><path fill="#ccd6dd" d="M22 5h-2v18h2V5z"/><path fill="#3b88c3" d="M20 0h-4v4h4V0z"/><path fill="#dd2e44" d="M23 27H13v2h10v-2z"/><g><path fill="#dd2e44" d="M13 25v-2h4v-4h2v4h4v2H13z"/></g><g><path fill="#66757f" d="M8 31l10 5 10-5H8z"/></g></g></g></g></svg>
